X:1
T:Perche se m'odiavi
T:Claudio Monteverdi
T:Perche se m'odiavi
C:Claudio Monteverdi
%%score [ 1 2 3 ] 4
L:1/8
M:3/2
K:C
V:1 treble-8 transpose=-12 nm="Tenor" snm="T."
V:2 treble-8 transpose=-12 nm="Tenor" snm="T."
V:3 bass nm="Bass" snm="B."
V:4 bass transpose=-12 nm="Basso Continuo" snm="Db."
V:1
 z8 e4 | e4 e6 e2 | e4 e6 d2 | d4 d6 c2 | c4 c6 g2 | f4 e6 d2 | d4 d6 d2 | d4 d6 c2 | c4 c4 e4 | %9
w: Per-|ché se m'od-|ia- vi mo-|stra- vi d'a-|mar- mi mo-|stra- vi d'a-|mar- mi per|sol in- ga-|nar- mi A-|
w: Chis-|sà ch'u- na|vol- ta, la|stol- ta fie-|rez- za la|stol- ta fie-|rez- za non|bra- mi chi|sprez- za. A-|
w: No,|no, ch'io non|vo- glio, se|sco- glio m'as-|pet- ta se|sco- glio m'as-|pet- ta driz-|zar la bar-|chet- ta. Pi-|
[M:2/4] e2 e->A |[M:3/2] B8 B4 | c4 B6 c2 | d4 c6 d2 | e4 d6 e2 | f4 e6 d2 | c4 B6 A2 | A4 A4 z4 | %17
w: hi Ste- *|lla ti|se co- sì|be- lla si|fe- ra si'al-|te- ra per|l'al- ma'im pia-|gar- mi|
w: hi, ch'i- *|o vuo'|dir al cor|mi- o che|fug- ga che|strug- ga l'in-|fi- da be-|llez- za.|
w: ù fie- *|ra, que|st'em- pia meg-|e- ra uc-|ci- de, s'en|ri- d'e ri-|den- do sa-|et- ta.|
[M:2/4] z/ A/A/A/ A2- | AA cc | c3 B | c2 d>e | AA z2 | z4 | z2 z c | B2 z B | !fermata!A4 |] %26
w: Io t'a- do- ra-|* va'e tù sprez-|za- vi|me Em- pia|Fi- lli||per-|ché per-|ché?|
w: For- se'a te toc-|* che- ra chie-|der pie-|tà, Em- pia|Fi- lli||chis-|sà, chis-|sà!|
w: Chia- ma pur quan-|* to voi, ch'io|non ve-|rrò, Em- pia|Fi- lli,||no|no, no|no.|
V:2
 z8 c4 | c4 c6 c2 | c4 c6 c2 | c4 c6 B2 | c4 c6 e2 | d4 d6 c2 | c4 c6 c2 | c4 c6 B2 | c4 c4 c4 | %9
w: Per-|ché se m'od-|ia- vi mo-|stra- vi d'a-|mar- mi mo-|stra- vi d'a-|mar- mi per|sol in- ga-|nar- mi A-|
w: Chis-|sà ch'u- na|vol- ta, la|stol- ta fie-|rez- za la|stol- ta fie-|rez- za non|bra- mi chi|sprez- za. A-|
w: No,|no, ch'io non|vo- glio, se|sco- glio m'as-|pet- ta se|sco- glio m'as-|pet- ta driz-|zar la bar-|chet- ta. Pi-|
[M:2/4] c2 A2 |[M:3/2] ^G8 G4 | A4 =G6 A2 | B4 A6 B2 | c4 B6 A2 | A4 A6 A2 | A4 A6 ^G2 | A4 A4 z4 | %17
w: hi Ste-|lla ti|se co- sì|be- lla si|fe- ra si'al-|te- ra per|l'al- ma'im pia-|gar- mi|
w: hi, ch'i-|o vuo'|dir al cor|mi- o che|fug- ga, che|strug- ga l'in-|fi- da be-|llez- za.|
w: ù fie-|ra, que|st'em- pia meg-|e- ra uc-|ci- de, s'en|ri- d'e ri-|den- do sa-|et- ta.|
[M:2/4] z/ A/A/A/ A2- | AA AG | A2 F2 | G2 z2 | z2 e>f | AA z2 | z2 z A | A2 z ^G | !fermata!A4 |] %26
w: Io t'a- do- ra-|* va'e tù sprez-|za- vi|me|Em- pia|Fi- lli|per-|ché per-|ché?|
w: For- se'a te toc-|* che- ra chie-|der pie-|tà,|Em- pia|Fi- lli,|chis-|sà, chis-|sà!|
w: Chia- ma pur quan-|* to voi, ch'io|non ve-|rrò,|Em- pia|Fi- lli,|no|no, no|no.|
V:3
 z8 C4 | C4 B,6 A,2 | A,4 G,6 F,2 | F,4 G,6 G,2 | C,4 C,6 C,2 | D,4 E,6 E,2 | F,4 G,6 A,2 | %7
w: Per-|ché se m'od-|ia- vi mo-|stra- vi d'a-|mar- mi mo-|stra- vi d'a-|mar- mi per|
w: Chis-|sà ch'u- na|vol- ta, la|stol- ta fie-|rez- za la|stol- ta fie-|rez- za non|
w: No,|no, ch'io non|vo- glio, se|sco- glio m'as-|pet- ta se|sco- glio m'as-|pet- ta driz-|
 F,4 G,6 G,,2 | C,4 C,4 C,4 |[M:2/4] C,2 F,2 |[M:3/2] E,8 E,4 | A,4 A,6 A,2 | G,4 G,6 G,2 | %13
w: sol in- ga-|nar- mi A-|hi Ste-|lla ti|se co- sì|be- lla si|
w: bra- mi chi|sprez- za. A-|hi, ch'i-|o vuo'|dir al cor|mi- o che|
w: zar la bar-|chet- ta. Pi-|ù fie-|ra, que|st'em- pia meg-|e- ra uc-|
 C,4 C,6 C,2 | D,4 E,6 F,2 | D,4 E,6 E,2 | A,,4 A,,4 z4 |[M:2/4] z/ A,/A,/G,/ F,>F, | F,3 E, | %19
w: fe- ra si'al-|te- ra per|l'al- ma'im pia-|gar- mi|Io t'a- do- ra- va'e|tù sprez-|
w: fug- ga, che|strug- ga l'in-|fi- da be-|llez- za.|For- se'a te toc- che-|ra chie-|
w: ci- de, s'en|ri- d'e ri-|den- do sa-|et- ta.|Chia- ma pur quan- to|voi, ch'io|
 D,3 D, | C,2 z2 | z4 | z2 B,>C | ^G,G, z D, | E,2 z E, | !fermata!A,,4 |] %26
w: za- vi|me.||Em- pia|Fi- lli per-|ché per-|ché?|
w: der pie-|tà,||Em- pia|Fi- lli, chis-|sà, chis-|sà!|
w: non ve-|rrò,||Em- pia|Fi- lli, no|no, no|no.|
V:4
 z8 C4 | C4 B,6 A,2 | A,4 G,6 F,2 | F,4 G,6 G,2 | C,4 C,6 C,2 | D,4 E,6 E,2 | F,4 G,6 A,2 | %7
 F,4 G,6 G,,2 | C,4 C,4 C,4 |[M:2/4] C,2 F,2 |[M:3/2] E,8 E,4 | A,4 A,6 A,2 | G,4 G,6 G,2 | %13
 C,4 C,6 C,2 | D,4 E,6 F,2 | D,4 E,6 E,2 | A,,4 A,,4 z4 |[M:2/4] A,>G, F,2 | F,2 F,E, | D,4 | %20
"^9-10" C,4 | ^C,4 | D,2"^6-7" D,2 | E,2 z D, | E,2 z E, | !fermata!A,,4 |] %26

